symbols/web/dinner_dining/materialsymbolsrounded/dinner_dining_wght500gradN25fill1_40px.svg

<svg xmlns="http://www.w3.org/2000/svg" height="40" width="40"><path d="M6.75 35.458q-.167 0-.292-.062-.125-.063-.25-.188L4.792 33.75q-.417-.375-.23-.854.188-.479.73-.479h29.5q.5 0 .687.479.188.479-.146.854l-1.5 1.458q-.083.125-.229.188-.146.062-.271.062Zm-1.333-5.333q.25-.75.604-1.417.354-.666.896-1.25V14.542h-.5q-.5 0-.834-.334-.333-.333-.333-.791 0-.5.333-.813.334-.312.834-.312h.5v-1.375h-.5q-.5 0-.834-.334-.333-.333-.333-.791 0-.5.333-.813.334-.312.834-.312h.5V7.292h-.5q-.5 0-.834-.334-.333-.333-.333-.791 0-.5.333-.813.334-.312.834-.312h10.625q1.125 0 1.812.687.688.688.688 1.854v1.084h14.375q.458 0 .791.312.334.313.334.813 0 .458-.334.791-.333.334-.791.334H19.542V12q0 1.167-.688 1.854-.687.688-1.812.688h-3.75V25.25q.75.083 1.416.375.667.292 1.25.708.792-2.625 3.104-4.416 2.313-1.792 5.521-1.792 3.917 0 6.459 2.646 2.541 2.646 2.458 6.521v.833Zm7.875-21.458h3.75V7.292h-3.75Zm0 3.625h3.75v-1.375h-3.75Zm-4.25-3.625h2.125V7.292H9.042Zm0 3.625h2.125v-1.375H9.042Zm0 13.708q.333-.25.937-.479.604-.229 1.188-.271V14.542H9.042Z"/></svg>

<svg xmlns="http://www.w3.org/2000/svg" height="40" width="40"><path d="M6.75 35.458Q6.583 35.458 6.458 35.396Q6.333 35.333 6.208 35.208L4.792 33.75Q4.375 33.375 4.562 32.896Q4.75 32.417 5.292 32.417H34.792Q35.292 32.417 35.479 32.896Q35.667 33.375 35.333 33.75L33.833 35.208Q33.75 35.333 33.604 35.396Q33.458 35.458 33.333 35.458ZM5.417 30.125Q5.667 29.375 6.021 28.708Q6.375 28.042 6.917 27.458V14.542H6.417Q5.917 14.542 5.583 14.208Q5.25 13.875 5.25 13.417Q5.25 12.917 5.583 12.604Q5.917 12.292 6.417 12.292H6.917V10.917H6.417Q5.917 10.917 5.583 10.583Q5.25 10.25 5.25 9.792Q5.25 9.292 5.583 8.979Q5.917 8.667 6.417 8.667H6.917V7.292H6.417Q5.917 7.292 5.583 6.958Q5.25 6.625 5.25 6.167Q5.25 5.667 5.583 5.354Q5.917 5.042 6.417 5.042H17.042Q18.167 5.042 18.854 5.729Q19.542 6.417 19.542 7.583V8.667H33.917Q34.375 8.667 34.708 8.979Q35.042 9.292 35.042 9.792Q35.042 10.25 34.708 10.583Q34.375 10.917 33.917 10.917H19.542V12Q19.542 13.167 18.854 13.854Q18.167 14.542 17.042 14.542H13.292V25.25Q14.042 25.333 14.708 25.625Q15.375 25.917 15.958 26.333Q16.75 23.708 19.062 21.917Q21.375 20.125 24.583 20.125Q28.5 20.125 31.042 22.771Q33.583 25.417 33.5 29.292V30.125ZM13.292 8.667H17.042V7.292Q17.042 7.292 17.042 7.292Q17.042 7.292 17.042 7.292H13.292ZM13.292 12.292H17.042Q17.042 12.292 17.042 12.292Q17.042 12.292 17.042 12.292V10.917H13.292ZM9.042 8.667H11.167V7.292H9.042ZM9.042 12.292H11.167V10.917H9.042ZM9.042 26Q9.375 25.75 9.979 25.521Q10.583 25.292 11.167 25.25V14.542H9.042Z"/></svg>
